X:090
T:March Past
M:4/4
K:G
G4 G3 A | B2 A2 B d3 | G4 G3 A | B2 d2 A4 | 
G4 G3 A | B2 A2 B d3 | g4 g3 f | g2 B2 A4 || 
B2 d2 d2 ef | g2 d2 e2 d2 | B2 d2 d2 ef | g2 B2 A4 | 
B2 d2 d2 ef | g2 d2 e2 d2 | B2 d2 d2 ef | g3 f g2 A2 || 

